!!!OTL-incipit: ALLERSCHOENSTER ENGEL
!!!ARE: Europa, Mitteleuropa, Deutschland
!!!SCT: Z0262
!!!YEM: Copyright 1995, estate of Helmut Schaffrath.
**kern	**text
*ICvox	*
*M2/4	*
*k[]	*
*C:	*
=1	=1
!LO:TX:a:t=Deutſch.	!
{4cc	Al-
4b	-ler-
=2	=2
8cc	-ſchön-
8g	-ſter
8e	En-
8c}	-gel,
=3	=3
{8cc	al-
8cc	-ler-
8b	-ſchönſtes
8b	.
=4	=4
4cc	Kind,
4r}	.
=5	=5
{4cc	Al-
4b	-ler-
=6	=6
8cc	-ſchön-
8g	-ſter
8e	En-
8c}	-gel,
=7	=7
{8cc	al-
8cc	-ler-
8b	-ſchönſtes
8b	.
=8	=8
4cc}	Kind,
{4g	komm,
=9	=9
8a	ei-
8a	-le
8a	dich
8a	und
=10	=10
8g	küſ-
8g	-ſe
8g}	mich
{8g	und
=11	=11
4ff	ma-
8ff	-che
8ee	ge-
=12	=12
4.dd}	-ſchwind.
{8g	All-
=13	=13
4g	-dar-
8g	-um
8b-/	ſo
=14	=14
8a	bitt
8cc	ich
4f}	dich,
=15	=15
{8a	komm,
8a	mein
8a	Schatʒ,
8cc	und
=16	=16
8bn	küſ-
8dd	-ſe
8g}	mich,
{8g	mein
=17	=17
8.cc	al-
16b	-ler-
8.cc	-ſchön-
16b	-ſter
=18	=18
4.cc}	Schatʒ,
{8e	ver-
=19	=19
4f	-giß
4g	mein
=20	=20
2c}	nicht.
==	==
!!!AGN: lyrisches Lied, Romanze, Abschieds - Lied
!!!ONB: ESAC (Essen Associative Code) Database: ZUCCAL
!!!AMT: simple duple
!!!AIN: vox
!!!EED: Helmut Schaffrath
!!!EEV: 1.0
!!!GTL: IV. Lyrische Lieder.
!!!URL-scan: https://www.digitale-sammlungen.de/de/view/bsb11160571?page=479
!!!ENC: Anna Maria Matuszewska
!!!EEV: 2025/01/30
*-	*-
